;FLAVOR:Marlin
;TIME:3650
;Filament used: 3.6683m
;Layer height: 0.2
;Generated with Cura_SteamEngine 3.5.0
M82 ;absolute extrusion mode
G21 ; set units to millimeters
G90 ; use absolute positioning
M82 ; absolute extrusion mode
M104 S210 ; set extruder temp
M140 S60 ; set bed temp
M190 S60 ; wait for bed temp
M109 S210 ; wait for extruder temp
G28 W ; home all without mesh bed level
G80 ; mesh bed leveling
G92 E0.0 ; reset extruder distance position
G1 Y-3.0 F1000.0 ; go outside print area
G1 X60.0 E9.0 F1000.0 ; intro line
G1 X100.0 E21.5 F1000.0 ; intro line
G92 E0.0 ; reset extruder distance position
G92 E0
G1 F2100 E-0.8
;LAYER_COUNT:129
;LAYER:0
M107
G0 F3600 X97.126 Y80.743 Z0.15
;TYPE:SKIRT
G1 F2100 E0
G1 F1800 X97.684 Y80.183 E0.01972
G1 X98.401 Y79.607 E0.04266
G1 X98.664 Y79.42 E0.05071
G1 X99.33 Y78.996 E0.07041
G1 X100.035 Y78.641 E0.0901
G1 X100.773 Y78.359 E0.1098
G1 X101.218 Y78.229 E0.12137
G1 X101.506 Y78.154 E0.12879
G1 X102.28 Y77.994 E0.14851
G1 X103.065 Y77.913 E0.16819
G1 X103.471 Y77.902 E0.17833
G1 X145.054 Y77.897 E1.21562
G1 X145.438 Y77.816 E1.22541
G1 X146.223 Y77.731 E1.2451
G1 X146.662 Y77.719 E1.25606
G1 X147.262 Y77.719 E1.27103
G1 X148.051 Y77.759 E1.29073
G1 X148.831 Y77.878 E1.31042
G1 X149.596 Y78.076 E1.33013
G1 X150.336 Y78.35 E1.34981
G1 X151.045 Y78.698 E1.36951
G1 X151.716 Y79.116 E1.38923
G1 X152.34 Y79.599 E1.40892
G1 X152.777 Y80.004 E1.42378
G1 X153.011 Y80.238 E1.43204
G1 X153.541 Y80.824 E1.45174
G1 X154.008 Y81.46 E1.47143
G1 X154.409 Y82.14 E1.49112
G1 X154.739 Y82.858 E1.51083
G1 X154.994 Y83.605 E1.53052
G1 X155.173 Y84.374 E1.55022
G1 X155.273 Y85.158 E1.56993
G1 X155.296 Y85.753 E1.58479
G1 X155.296 Y86.354 E1.59978
G1 X155.256 Y87.143 E1.61948
G1 X155.137 Y87.923 E1.63917
G1 X155.118 Y87.998 E1.6411
G1 X155.107 Y123.576 E2.52859
G1 X155.067 Y124.365 E2.5483
G1 X154.947 Y125.146 E2.56801
G1 X154.749 Y125.91 E2.5877
G1 X154.475 Y126.65 E2.60738
G1 X154.301 Y127.027 E2.61774
G1 X154.069 Y127.497 E2.63082
G1 X153.684 Y128.186 E2.6505
G1 X153.232 Y128.833 E2.67019
G1 X152.716 Y129.431 E2.6899
G1 X152.142 Y129.974 E2.70961
G1 X151.517 Y130.456 E2.72929
G1 X150.965 Y130.805 E2.74558
G1 X150.56 Y131.038 E2.75724
G1 X149.856 Y131.397 E2.77695
G1 X149.12 Y131.682 E2.79664
G1 X148.359 Y131.892 E2.81633
G1 X147.58 Y132.024 E2.83604
G1 X146.674 Y132.077 E2.85868
G1 X103.491 Y132.099 E3.93589
G1 X102.702 Y132.059 E3.95559
G1 X101.922 Y131.94 E3.97528
G1 X101.157 Y131.743 E3.99498
G1 X100.55 Y131.525 E4.01107
G1 X100.053 Y131.323 E4.02445
G1 X99.338 Y130.989 E4.04414
G1 X98.659 Y130.584 E4.06386
G1 X98.026 Y130.113 E4.08354
G1 X97.443 Y129.58 E4.10325
G1 X96.917 Y128.991 E4.12295
G1 X96.537 Y128.478 E4.13887
G1 X96.277 Y128.095 E4.15042
G1 X95.867 Y127.42 E4.17012
G1 X95.527 Y126.707 E4.18982
G1 X95.261 Y125.963 E4.20953
G1 X95.072 Y125.197 E4.22921
G1 X94.962 Y124.415 E4.24891
G1 X94.93 Y123.723 E4.26619
G1 X94.886 Y86.486 E5.19507
G1 X94.925 Y85.697 E5.21478
G1 X95.044 Y84.917 E5.23446
G1 X95.241 Y84.152 E5.25417
G1 X95.595 Y83.229 E5.27883
G1 X95.83 Y82.716 E5.2929
G1 X96.194 Y82.015 E5.31261
G1 X96.628 Y81.355 E5.33231
G1 X97.126 Y80.743 E5.35199
G0 F3600 X97.464 Y80.966
G1 F1800 X98.012 Y80.427 E5.37117
G1 X98.633 Y79.933 E5.39096
G1 X98.896 Y79.746 E5.39901
G1 X99.545 Y79.334 E5.41819
G1 X100.234 Y78.991 E5.43739
G1 X101.319 Y78.616 E5.46602
G1 X101.607 Y78.541 E5.47345
G1 X102.361 Y78.386 E5.49265
G1 X103.471 Y78.302 E5.52042
G1 X145.09 Y78.297 E6.55861
G1 X145.56 Y78.201 E6.57057
G1 X146.662 Y78.119 E6.59814
G1 X147.262 Y78.119 E6.61311
G1 X148.03 Y78.159 E6.63229
G1 X148.79 Y78.278 E6.65148
G1 X149.533 Y78.476 E6.67066
G1 X150.252 Y78.75 E6.68985
G1 X150.938 Y79.097 E6.70903
G1 X151.585 Y79.513 E6.72822
G1 X152.185 Y79.994 E6.7474
G1 X152.495 Y80.286 E6.75803
G1 X152.729 Y80.52 E6.76628
G1 X153.243 Y81.092 E6.78546
G1 X153.696 Y81.714 E6.80466
G1 X154.082 Y82.379 E6.82384
G1 X154.397 Y83.081 E6.84303
G1 X154.637 Y83.812 E6.86222
G1 X154.8 Y84.563 E6.88139
G1 X154.884 Y85.328 E6.90059
G1 X154.896 Y85.753 E6.9112
G1 X154.896 Y86.354 E6.92619
G1 X154.856 Y87.122 E6.94537
G1 X154.737 Y87.882 E6.96456
G1 X154.718 Y87.955 E6.96644
G1 X154.707 Y123.576 E7.85501
G1 X154.667 Y124.344 E7.8742
G1 X154.547 Y125.104 E7.89339
G1 X154.349 Y125.847 E7.91257
G1 X153.943 Y126.849 E7.93954
G1 X153.711 Y127.319 E7.95262
G1 X153.335 Y127.991 E7.97182
G1 X152.891 Y128.619 E7.99101
G1 X152.385 Y129.198 E8.01019
G1 X151.821 Y129.721 E8.02938
G1 X151.206 Y130.183 E8.04857
G1 X150.765 Y130.458 E8.06153
G1 X150.36 Y130.691 E8.07319
G1 X149.674 Y131.04 E8.09239
G1 X148.956 Y131.315 E8.11156
G1 X148.213 Y131.514 E8.13075
G1 X147.454 Y131.635 E8.14992
G1 X146.674 Y131.677 E8.16941
G1 X103.491 Y131.699 E9.24661
G1 X102.723 Y131.659 E9.2658
G1 X101.963 Y131.54 E9.28499
G1 X101.219 Y131.343 E9.30419
G1 X100.701 Y131.154 E9.31794
G1 X100.204 Y130.952 E9.33132
G1 X99.507 Y130.626 E9.35052
G1 X98.848 Y130.229 E9.36971
G1 X98.234 Y129.766 E9.38889
G1 X97.671 Y129.242 E9.40808
G1 X97.166 Y128.662 E9.42726
G1 X96.867 Y128.253 E9.4399
G1 X96.607 Y127.87 E9.45145
G1 X96.209 Y127.212 E9.47063
G1 X95.881 Y126.517 E9.4898
G1 X95.627 Y125.791 E9.50899
G1 X95.45 Y125.042 E9.52819
G1 X95.352 Y124.279 E9.54738
G1 X95.33 Y123.723 E9.56126
G1 X95.286 Y86.486 E10.49014
G1 X95.325 Y85.718 E10.50932
G1 X95.444 Y84.958 E10.52851
G1 X95.64 Y84.214 E10.5477
G1 X95.958 Y83.395 E10.56962
G1 X96.193 Y82.882 E10.58369
G1 X96.55 Y82.2 E10.6029
G1 X96.975 Y81.559 E10.62208
G1 X97.464 Y80.966 E10.64125
G0 F3600 X97.801 Y81.191
G1 F1800 X98.339 Y80.672 E10.6599
G1 X98.865 Y80.259 E10.67658
G1 X99.128 Y80.072 E10.68463
G1 X99.76 Y79.672 E10.70329
G1 X100.431 Y79.341 E10.72196
G1 X101.42 Y79.003 E10.74803
G1 X101.708 Y78.928 E10.75545
G1 X102.441 Y78.778 E10.77411
G1 X103.471 Y78.702 E10.79988
G1 X145.125 Y78.697 E11.83894
G1 X145.681 Y78.588 E11.85307
G1 X146.662 Y78.519 E11.87761
G1 X147.262 Y78.519 E11.89257
G1 X148.009 Y78.559 E11.91123
G1 X148.747 Y78.678 E11.92988
G1 X149.469 Y78.876 E11.94856
G1 X150.165 Y79.149 E11.96721
G1 X150.828 Y79.496 E11.98587
G1 X151.451 Y79.911 E12.00455
G1 X152.212 Y80.569 E12.02964
G1 X152.446 Y80.803 E12.0379
G1 X152.946 Y81.36 E12.05657
G1 X153.383 Y81.966 E12.0752
G1 X153.754 Y82.616 E12.09387
G1 X154.053 Y83.302 E12.11254
G1 X154.277 Y84.016 E12.13121
G1 X154.424 Y84.749 E12.14986
G1 X154.496 Y85.753 E12.17497
G1 X154.496 Y86.354 E12.18996
G1 X154.456 Y87.101 E12.20862
G1 X154.337 Y87.839 E12.22727
G1 X154.318 Y87.91 E12.2291
G1 X154.307 Y123.576 E13.11879
G1 X154.267 Y124.323 E13.13745
G1 X154.147 Y125.062 E13.15613
G1 X153.949 Y125.783 E13.17478
G1 X153.584 Y126.672 E13.19875
G1 X153.352 Y127.142 E13.21183
G1 X152.985 Y127.795 E13.23051
G1 X152.551 Y128.404 E13.24917
G1 X152.055 Y128.963 E13.26781
G1 X151.502 Y129.467 E13.28647
G1 X150.898 Y129.908 E13.30513
G1 X150.566 Y130.112 E13.31485
G1 X150.161 Y130.345 E13.3265
G1 X149.493 Y130.682 E13.34517
G1 X148.794 Y130.947 E13.36382
G1 X148.07 Y131.136 E13.38248
G1 X147.33 Y131.246 E13.40114
G1 X146.674 Y131.277 E13.41753
G1 X103.491 Y131.299 E14.49473
G1 X102.744 Y131.259 E14.51339
G1 X102.005 Y131.14 E14.53206
G1 X101.283 Y130.943 E14.55073
G1 X100.851 Y130.784 E14.56221
G1 X100.354 Y130.582 E14.5756
G1 X99.677 Y130.264 E14.59426
G1 X99.038 Y129.875 E14.61292
G1 X98.444 Y129.42 E14.63158
G1 X97.902 Y128.905 E14.65023
G1 X97.418 Y128.334 E14.6689
G1 X97.198 Y128.029 E14.67828
G1 X96.938 Y127.646 E14.68983
G1 X96.552 Y127.005 E14.7085
G1 X96.236 Y126.327 E14.72716
G1 X95.994 Y125.619 E14.74582
G1 X95.829 Y124.889 E14.76449
G1 X95.743 Y124.146 E14.78315
G1 X95.73 Y123.722 E14.79373
G1 X95.686 Y86.485 E15.72261
G1 X95.725 Y85.738 E15.74127
G1 X95.844 Y85 E15.75992
G1 X96.04 Y84.278 E15.77858
G1 X96.322 Y83.562 E15.79778
G1 X96.557 Y83.049 E15.81185
G1 X96.904 Y82.386 E15.83052
G1 X97.321 Y81.765 E15.84918
G1 X97.801 Y81.191 E15.86784
G0 F3600 X98.137 Y81.418
G1 F1800 X98.665 Y80.919 E15.88597
G1 X99.096 Y80.585 E15.89957
G1 X99.359 Y80.398 E15.90762
G1 X99.974 Y80.01 E15.92576
G1 X100.627 Y79.693 E15.94386
G1 X101.521 Y79.39 E15.96741
G1 X101.809 Y79.315 E15.97483
G1 X102.521 Y79.171 E15.99295
G1 X103.471 Y79.102 E16.01672
G1 X145.154 Y79.097 E17.0565
G1 X145.799 Y78.976 E17.07287
G1 X146.662 Y78.919 E17.09445
G1 X147.262 Y78.919 E17.10941
G1 X147.987 Y78.959 E17.12753
G1 X148.704 Y79.078 E17.14566
G1 X149.403 Y79.276 E17.16378
G1 X150.076 Y79.549 E17.1819
G1 X150.715 Y79.894 E17.20001
G1 X151.312 Y80.308 E17.21813
G1 X151.929 Y80.852 E17.23865
G1 X152.163 Y81.086 E17.24691
G1 X152.647 Y81.627 E17.26502
G1 X153.07 Y82.218 E17.28315
G1 X153.424 Y82.852 E17.30126
G1 X153.707 Y83.521 E17.31938
G1 X153.915 Y84.217 E17.3375
G1 X154.045 Y84.932 E17.35563
G1 X154.096 Y85.753 E17.37615
G1 X154.096 Y86.354 E17.39114
G1 X154.056 Y87.079 E17.40925
G1 X153.937 Y87.796 E17.42738
G1 X153.918 Y87.864 E17.42914
G1 X153.907 Y123.576 E18.31998
G1 X153.867 Y124.301 E18.3381
G1 X153.747 Y125.018 E18.35623
G1 X153.55 Y125.717 E18.37435
G1 X153.225 Y126.495 E18.39538
G1 X152.993 Y126.965 E18.40845
G1 X152.636 Y127.598 E18.42658
G1 X152.212 Y128.188 E18.4447
G1 X151.726 Y128.727 E18.46281
G1 X151.183 Y129.21 E18.48094
G1 X150.366 Y129.765 E18.50558
G1 X149.961 Y129.998 E18.51723
G1 X149.313 Y130.325 E18.53534
G1 X148.632 Y130.579 E18.55347
G1 X147.928 Y130.756 E18.57158
G1 X147.208 Y130.855 E18.5897
G1 X146.673 Y130.877 E18.60306
G1 X103.49 Y130.899 E19.68027
G1 X102.765 Y130.859 E19.69838
G1 X102.049 Y130.74 E19.71648
G1 X101.349 Y130.543 E19.73462
G1 X101.002 Y130.413 E19.74387
G1 X100.505 Y130.211 E19.75725
G1 X99.848 Y129.901 E19.77537
G1 X99.229 Y129.521 E19.79349
G1 X98.656 Y129.075 E19.8116
G1 X98.135 Y128.568 E19.82974
G1 X97.529 Y127.804 E19.85406
G1 X97.269 Y127.421 E19.86561
G1 X96.895 Y126.798 E19.88374
G1 X96.591 Y126.139 E19.90184
G1 X96.362 Y125.449 E19.91998
G1 X96.21 Y124.739 E19.93809
G1 X96.13 Y123.722 E19.96354
G1 X96.086 Y86.485 E20.89242
G1 X96.125 Y85.759 E20.91055
G1 X96.244 Y85.043 E20.92866
G1 X96.44 Y84.344 E20.94677
G1 X96.686 Y83.728 E20.96331
G1 X96.921 Y83.215 E20.97739
G1 X97.259 Y82.573 E20.99549
G1 X97.666 Y81.971 E21.01362
G1 X98.137 Y81.418 E21.03174
G0 F3600 X98.472 Y81.646
G1 F1800 X98.99 Y81.17 E21.04928
G1 X99.328 Y80.911 E21.05991
G1 X99.591 Y80.724 E21.06796
G1 X100.187 Y80.349 E21.08552
G1 X100.822 Y80.045 E21.10308
G1 X101.622 Y79.777 E21.12413
G1 X101.91 Y79.702 E21.13155
G1 X102.6 Y79.564 E21.14911
G1 X103.471 Y79.502 E21.17089
G1 X145.193 Y79.497 E22.21165
G1 X145.223 Y79.488 E22.21243
G1 X145.916 Y79.364 E22.22999
G1 X146.662 Y79.319 E22.24863
G1 X147.262 Y79.319 E22.2636
G1 X147.965 Y79.359 E22.28117
G1 X148.659 Y79.478 E22.29873
G1 X149.334 Y79.676 E22.31628
G1 X149.983 Y79.948 E22.33383
G1 X150.597 Y80.293 E22.3514
G1 X151.168 Y80.704 E22.36895
G1 X151.646 Y81.135 E22.385
G1 X151.88 Y81.369 E22.39326
G1 X152.349 Y81.894 E22.41082
G1 X152.755 Y82.469 E22.42838
G1 X153.093 Y83.087 E22.44595
G1 X153.36 Y83.738 E22.4635
G1 X153.55 Y84.416 E22.48107
G1 X153.663 Y85.111 E22.49863
G1 X153.696 Y85.753 E22.51467
G1 X153.696 Y86.354 E22.52966
G1 X153.656 Y87.057 E22.54722
G1 X153.537 Y87.751 E22.56479
G1 X153.518 Y87.817 E22.5665
G1 X153.507 Y123.576 E23.45851
G1 X153.467 Y124.279 E23.47608
G1 X153.347 Y124.972 E23.49362
G1 X153.15 Y125.648 E23.51119
G1 X152.867 Y126.318 E23.52933
G1 X152.635 Y126.788 E23.5424
G1 X152.288 Y127.401 E23.55998
G1 X151.873 Y127.97 E23.57754
G1 X151.397 Y128.489 E23.59511
G1 X150.866 Y128.95 E23.61265
G1 X150.167 Y129.418 E23.63364
G1 X149.762 Y129.651 E23.64529
G1 X149.133 Y129.967 E23.66285
G1 X148.472 Y130.209 E23.68041
G1 X147.788 Y130.375 E23.69797
G1 X147.089 Y130.463 E23.71554
G1 X146.673 Y130.477 E23.72592
G1 X103.49 Y130.499 E24.80313
G1 X102.787 Y130.459 E24.82069
G1 X102.093 Y130.34 E24.83826
G1 X101.153 Y130.043 E24.86285
G1 X100.656 Y129.841 E24.87623
G1 X100.019 Y129.539 E24.89382
G1 X99.422 Y129.167 E24.91136
G1 X98.87 Y128.73 E24.92893
G1 X98.371 Y128.233 E24.94649
G1 X97.86 Y127.579 E24.9672
G1 X97.6 Y127.196 E24.97875
G1 X97.239 Y126.592 E24.9963
G1 X96.948 Y125.951 E25.01386
G1 X96.731 Y125.281 E25.03143
G1 X96.592 Y124.591 E25.04898
G1 X96.53 Y123.721 E25.07074
G1 X96.486 Y86.484 E25.99962
G1 X96.525 Y85.781 E26.01719
G1 X96.644 Y85.087 E26.03475
G1 X96.84 Y84.411 E26.05231
G1 X97.049 Y83.895 E26.0662
G1 X97.284 Y83.382 E26.08027
G1 X97.613 Y82.76 E26.09782
G1 X98.011 Y82.178 E26.11541
G1 X98.472 Y81.646 E26.13297
G0 F3600 X98.806 Y81.877
G1 F1800 X99.56 Y81.237 E26.15764
G1 X99.823 Y81.05 E26.16569
G1 X100.4 Y80.689 E26.18267
G1 X101.016 Y80.398 E26.19967
G1 X101.722 Y80.164 E26.21822
G1 X102.01 Y80.089 E26.22564
G1 X102.678 Y79.957 E26.24263
G1 X103.471 Y79.902 E26.26246
G1 X145.257 Y79.897 E27.30481
G1 X145.36 Y79.867 E27.30749
G1 X146.031 Y79.753 E27.32447
G1 X146.662 Y79.719 E27.34023
G1 X147.262 Y79.719 E27.3552
G1 X147.942 Y79.759 E27.37219
G1 X148.612 Y79.878 E27.38916
G1 X149.264 Y80.075 E27.40616
G1 X149.888 Y80.347 E27.42314
G1 X150.476 Y80.691 E27.44013
G1 X151.02 Y81.101 E27.45712
G1 X151.363 Y81.418 E27.46877
G1 X151.597 Y81.652 E27.47703
G1 X152.05 Y82.161 E27.49402
G1 X152.439 Y82.719 E27.51099
G1 X152.761 Y83.319 E27.52798
G1 X153.01 Y83.953 E27.54497
G1 X153.183 Y84.612 E27.56197
G1 X153.277 Y85.286 E27.57894
G1 X153.296 Y85.753 E27.5906
G1 X153.296 Y86.354 E27.60559
G1 X153.256 Y87.034 E27.62258
G1 X153.137 Y87.704 E27.63956
G1 X153.118 Y87.768 E27.64122
G1 X153.107 Y123.576 E28.53446
G1 X153.067 Y124.255 E28.55143
G1 X152.947 Y124.926 E28.56843
G1 X152.75 Y125.577 E28.5854
G1 X152.508 Y126.141 E28.60071
G1 X152.276 Y126.611 E28.61378
G1 X151.939 Y127.203 E28.63077
G1 X151.535 Y127.751 E28.64776
G1 X151.07 Y128.249 E28.66475
G1 X150.55 Y128.688 E28.68173
G1 X149.967 Y129.071 E28.69913
G1 X149.562 Y129.304 E28.71078
G1 X148.953 Y129.609 E28.72777
G1 X148.313 Y129.84 E28.74475
G1 X147.649 Y129.994 E28.76175
G1 X146.673 Y130.077 E28.78618
G1 X103.49 Y130.099 E29.86339
G1 X102.81 Y130.059 E29.88038
G1 X102.14 Y129.94 E29.89736
G1 X101.303 Y129.672 E29.91928
G1 X100.806 Y129.47 E29.93266
G1 X100.192 Y129.177 E29.94963
G1 X99.615 Y128.814 E29.96664
G1 X99.086 Y128.386 E29.98361
G1 X98.61 Y127.899 E30.0006
G1 X98.191 Y127.355 E30.01773
G1 X97.931 Y126.972 E30.02927
G1 X97.583 Y126.387 E30.04625
G1 X97.305 Y125.765 E30.06325
G1 X97.102 Y125.115 E30.08024
G1 X96.976 Y124.446 E30.09722
G1 X96.93 Y123.721 E30.11534
G1 X96.886 Y86.484 E31.04422
G1 X96.925 Y85.804 E31.06121
G1 X97.044 Y85.134 E31.07819
G1 X97.24 Y84.482 E31.09517
G1 X97.413 Y84.061 E31.10652
G1 X97.648 Y83.548 E31.1206
G1 X97.967 Y82.947 E31.13757
G1 X98.355 Y82.387 E31.15457
G1 X98.806 Y81.877 E31.17155
G0 F3600 X98.699 Y82.598
G1 F1800 X99.139 Y82.11 E31.18794
G1 X99.792 Y81.563 E31.20919
G1 X100.055 Y81.376 E31.21724
G1 X100.612 Y81.029 E31.23361
G1 X101.208 Y80.752 E31.25
G1 X101.823 Y80.551 E31.26614
G1 X102.111 Y80.476 E31.27357
G1 X102.756 Y80.35 E31.28996
G1 X103.471 Y80.302 E31.30784
G1 X145.319 Y80.297 E32.35174
G1 X145.494 Y80.247 E32.35628
G1 X146.143 Y80.144 E32.37267
G1 X146.662 Y80.119 E32.38563
G1 X147.262 Y80.119 E32.4006
G1 X147.918 Y80.159 E32.41699
G1 X148.564 Y80.278 E32.43338
G1 X149.191 Y80.475 E32.44977
G1 X149.789 Y80.747 E32.46616
G1 X150.35 Y81.089 E32.48255
G1 X151.08 Y81.701 E32.50631
G1 X151.314 Y81.935 E32.51457
G1 X151.75 Y82.427 E32.53097
G1 X152.122 Y82.968 E32.54735
G1 X152.426 Y83.55 E32.56373
G1 X152.657 Y84.165 E32.58011
G1 X152.812 Y84.804 E32.59652
G1 X152.896 Y85.753 E32.62028
G1 X152.896 Y86.354 E32.63527
